X: 823
T: Alastair Of The Den
R: polka
M: 2/4
K: Aminor
|:AA/A/ c2|BA B2|dd/d/ GG|dd/d/ GG|
AA/A/ c2|BA Bc/d/|ec dB|AA/A/ A2:|
|:ec Ac/d/|ec A2|dB GB/c/|dB G2|
ec Ac/d/|ec A/B/c/d/|ec dB|AA/A/ A2:|

